X:17
T:Alice's
O:ireland
Z: id:dc-reel-2
M:C
L:1/8
K:E Minor
D|EGBG AGED|E2GE DEB,D|EGBG A2Bd|eBdB AGED|!
EGBG AGED|E2GE DEB,D|DB,A,B, DEFA|BFAF FEE:|!
K:G Major
F|G2DB, DGBG|A2EC EcBA|G2DB, DGBG|AcBA AGG:|!
